X:1
T:Title
L:1/8
M:4/4
K:D
V:1 treble nm="Midi_1"
V:1
 F2 A2 A2 d2 | B2 c2 de"^Descant to AMNS 527 Halton Holgate" f2 | g2 f2 e2 d2 | e2 d2 (d2 c2) | %4
w: God all- boun- teous,|all cre- a * tive,|whom no ills from|good dis- suade, *|
 A2 AB c2 e2 | f2 ^g2 a2 e2 | %6
w: is in * car- nate,|and a na- tive|
 d2 d2 e2"^Written to fit Rawsthorne harmony\nAndrew Sims 28 December 2014" f2 | gf e2 d4 |] %8
w: of the ve- ry|world * he made.|

